Numix/32/mimetypes/image-x-exr.svg

<?xml version="1.0" encoding="UTF-8" standalone="no"?>
<svg
   xmlns:dc="http://purl.org/dc/elements/1.1/"
   xmlns:cc="http://creativecommons.org/ns#"
   xmlns:rdf="http://www.w3.org/1999/02/22-rdf-syntax-ns#"
   xmlns:svg="http://www.w3.org/2000/svg"
   xmlns="http://www.w3.org/2000/svg"
   xmlns:sodipodi="http://sodipodi.sourceforge.net/DTD/sodipodi-0.dtd"
   xmlns:inkscape="http://www.inkscape.org/namespaces/inkscape"
   width="32"
   height="32"
   viewBox="0 0 32 32"
   id="svg2"
   version="1.1"
   inkscape:version="0.91 r13725"
   sodipodi:docname="image-x-exr.svg">
  <metadata
     id="metadata26">
    <rdf:RDF>
      <cc:Work
         rdf:about="">
        <dc:format>image/svg+xml</dc:format>
        <dc:type
           rdf:resource="http://purl.org/dc/dcmitype/StillImage" />
        <dc:title />
      </cc:Work>
    </rdf:RDF>
  </metadata>
  <defs
     id="defs24" />
  <sodipodi:namedview
     pagecolor="#ffffff"
     bordercolor="#666666"
     borderopacity="1"
     objecttolerance="10"
     gridtolerance="10"
     guidetolerance="10"
     inkscape:pageopacity="0"
     inkscape:pageshadow="2"
     inkscape:window-width="1920"
     inkscape:window-height="1013"
     id="namedview22"
     showgrid="false"
     inkscape:zoom="1"
     inkscape:cx="17.12873"
     inkscape:cy="-29.145078"
     inkscape:window-x="0"
     inkscape:window-y="27"
     inkscape:window-maximized="1"
     inkscape:current-layer="svg2">
    <inkscape:grid
       type="xygrid"
       id="grid3100" />
  </sodipodi:namedview>
  <path
     style="fill:#38a34e;fill-opacity:1"
     d="M 5.335888,2.97e-4 C 4.648414,3.12e-4 4,0.676788 4,1.394031 L 4,30.606268 C 4,31.282757 4.687474,32 5.335888,32 l 21.327331,0 c 0.648414,0 1.335888,-0.717243 1.335888,-1.393732 L 28,8.9999995 19,0 z"
     id="path4-1"
     inkscape:connector-curvature="0"
     sodipodi:nodetypes="ssssssccs" />
  <path
     style="fill:#000000;fill-opacity:0.19599998"
     d="m 20.999999,8.9999995 7,7.0000005 0,-7.0000005 z"
     id="path6-4"
     inkscape:connector-curvature="0"
     sodipodi:nodetypes="cccc" />
  <path
     style="fill:#ffffff;fill-opacity:0.39200003"
     d="m 19.000305,2.97e-4 8.991594,8.9997025 -7.613262,0 c -0.672951,0 -1.378332,-0.7134896 -1.378332,-1.3864402 z"
     id="path8-6"
     inkscape:connector-curvature="0"
     sodipodi:nodetypes="ccssc" />
  <path
     style="fill:#ffffff"
     d="m 11.644779,10.999946 c -0.351641,0.03296 -0.652001,0.406447 -0.644676,0.801908 l 0,8.414521 c 0.0037,0.41377 0.333328,0.787261 0.703283,0.783598 l 8.611547,0 c 0.362631,-0.0072 0.681306,-0.373491 0.684968,-0.783598 l 0,-8.414521 c 0.0073,-0.417431 -0.315011,-0.798245 -0.684968,-0.801908 z M 12,12 l 8,0 0,5.700547 -2.351679,-2.658114 -1.490813,1.387774 L 14.19418,13.969563 12,16.799413 Z"
     id="path10"
     inkscape:connector-curvature="0"
     sodipodi:nodetypes="ccccccccccccccccc" />
  <path
     style="fill:#000000;fill-opacity:0.19599998"
     d="m 4,24 0,6.667969 C 4,31.316407 4.6875,32 5.3320311,32 L 26.667969,32 C 27.3125,32 28,31.316407 28,30.667969 L 28,24 z"
     id="path3011"
     inkscape:connector-curvature="0" />
  <g
     id="g4156"
     transform="translate(6.5e-6,0)">
    <path
       sodipodi:nodetypes="ccccccccccccc"
       d="m 8.9999935,31 0,-6 3.7783375,0 0,0.988691 -2.539042,0 0,1.016963 2.206548,0 0,0.988692 -2.206548,0 0,2.016962 2.760705,0 0,0.988692 z"
       style="font-style:normal;font-variant:normal;font-weight:bold;font-stretch:normal;font-size:medium;line-height:125%;font-family:'Ubuntu Mono';-inkscape-font-specification:'Ubuntu Mono, Bold';text-align:start;letter-spacing:0px;word-spacing:0px;writing-mode:lr-tb;text-anchor:start;fill:#ffffff;fill-opacity:1;stroke:none;stroke-width:1px;stroke-linecap:butt;stroke-linejoin:miter;stroke-opacity:1"
       id="path4147"
       inkscape:connector-curvature="0" />
    <path
       sodipodi:nodetypes="ccccccccccccccccscccc"
       d="M 17.608787,31 C 17.47629,30.670436 17.312413,30.305331 17.117155,29.904685 16.928871,29.504039 16.730126,29.103393 16.520921,28.702747 16.31869,29.084007 16.116458,29.481422 15.914225,29.894992 15.711994,30.3021 15.537657,30.670436 15.391214,31 L 14,31 c 0.06974,-0.174475 0.170852,-0.384491 0.303347,-0.630049 0.13947,-0.245557 0.289401,-0.5105 0.449792,-0.794829 C 14.920502,29.290791 15.09484,29 15.276151,28.702747 c 0.181311,-0.303716 0.355648,-0.594508 0.523012,-0.872375 L 14,25 15.5,25 16.520921,26.919224 17.5,25 19,25 17.242678,27.801292 c 0.188285,0.277868 0.373082,0.56866 0.554393,0.872376 0.181311,0.303715 0.348676,0.600968 0.502093,0.89176 0.16039,0.28433 0.29986,0.552504 0.418411,0.804523 C 18.836124,30.615509 18.930265,30.825525 19,31 Z"
       style="font-style:normal;font-variant:normal;font-weight:bold;font-stretch:normal;font-size:medium;line-height:125%;font-family:'Ubuntu Mono';-inkscape-font-specification:'Ubuntu Mono, Bold';text-align:start;letter-spacing:0px;word-spacing:0px;writing-mode:lr-tb;text-anchor:start;fill:#ffffff;fill-opacity:1;stroke:none;stroke-width:1px;stroke-linecap:butt;stroke-linejoin:miter;stroke-opacity:1"
       id="path4149"
       inkscape:connector-curvature="0" />
    <path
       sodipodi:nodetypes="csscssccccccccccccccccssscccscss"
       d="m 21.655172,25.000059 c 0.365517,0 0.797414,0.03834 1.093966,0.115015 0.296551,0.07668 0.551724,0.194887 0.765516,0.35463 0.213793,0.159742 0.375862,0.364213 0.486208,0.613412 0.117242,0.242809 0.175862,0.530346 0.175862,0.862611 0,0.345045 -0.07586,0.658141 -0.227587,0.939288 -0.151724,0.281147 -0.50431,0.495203 -0.856035,0.642167 0.117242,0.166132 0.241381,0.351433 0.372416,0.555904 0.131034,0.198081 0.25862,0.408942 0.382757,0.632582 0.124139,0.217251 0.24138,0.437696 0.351724,0.661335 C 24.317241,30.594254 24.417241,30.801919 24.5,31 l -1.334483,0 C 23.006896,30.616617 22.82069,30.249209 22.606896,29.897775 22.399999,29.539951 22.175862,29.178932 21.934483,28.814719 l -0.66207,0 0,2.185281 L 20,31 20,25.153413 c 0.124138,-0.02556 0.258621,-0.04792 0.403448,-0.06709 0.151724,-0.02556 0.303448,-0.04153 0.455172,-0.04792 0.151725,-0.01278 0.296552,-0.02236 0.434483,-0.02875 0.13793,-0.0064 0.25862,-0.0096 0.362069,-0.0096 z m 1.22845,1.936083 c 0,-0.313095 -0.103445,-0.543125 -0.310346,-0.690088 -0.206896,-0.146964 -0.580172,-0.220446 -0.918104,-0.220446 -0.04828,0 -0.106897,0.0032 -0.175861,0.0096 -0.06898,0 -0.137937,0.0064 -0.206897,0.01917 l 0,1.78273 0.27931,0 c 0.434482,0 0.849139,-0.07668 1.042242,-0.230029 0.193104,-0.159743 0.289656,-0.383384 0.289656,-0.670921 z"
       style="font-style:normal;font-variant:normal;font-weight:bold;font-stretch:normal;font-size:medium;line-height:125%;font-family:'Ubuntu Mono';-inkscape-font-specification:'Ubuntu Mono, Bold';text-align:start;letter-spacing:0px;word-spacing:0px;writing-mode:lr-tb;text-anchor:start;fill:#ffffff;fill-opacity:1;stroke:none;stroke-width:1px;stroke-linecap:butt;stroke-linejoin:miter;stroke-opacity:1"
       id="path4151"
       inkscape:connector-curvature="0" />
  </g>
</svg>

<svg xmlns="http://www.w3.org/2000/svg" viewBox="0 0 32 32">
 <path d="m 5.336 0 c -0.687 0 -1.336 0.676 -1.336 1.394 l 0 29.21 c 0 0.676 0.687 1.394 1.336 1.394 l 21.327 0 c 0.648 0 1.336 -0.717 1.336 -1.394 l 0.001 -21.606 -9 -9 z" style="fill:#38a34e;fill-opacity:1"/>
 <path d="m 21 9 7 7 0 -7 z" style="fill:#000;fill-opacity:0.196"/>
 <path d="m 19 0 8.992 9 -7.613 0 c -0.673 0 -1.378 -0.713 -1.378 -1.386 z" style="fill:#fff;fill-opacity:0.392"/>
 <path d="m 11.645 11 c -0.352 0.033 -0.652 0.406 -0.645 0.802 l 0 8.415 c 0.004 0.414 0.333 0.787 0.703 0.784 l 8.612 0 c 0.363 -0.007 0.681 -0.373 0.685 -0.784 l 0 -8.415 c 0.007 -0.417 -0.315 -0.798 -0.685 -0.802 z m 0.355 1 l 8 0 0 5.701 -2.352 -2.658 -1.491 1.388 l -1.963 -2.461 -2.194 2.83" style="fill:#fff"/>
 <path d="m 4 24 0 6.668 c 0 0.648 0.688 1.332 1.332 1.332 l 21.336 0 c 0.645 0 1.332 -0.684 1.332 -1.332 l 0 -6.668 z" style="fill:#000;fill-opacity:0.196"/>
 <g transform="translate(6.5e-6,0)">
  <path d="m 9 31 0 -6 3.778 0 0 0.989 -2.539 0 0 1.017 2.207 0 0 0.989 -2.207 0 0 2.02 2.761 0 0 0.989 z" style="fill:#fff;fill-opacity:1;stroke:none"/>
  <path d="m 17.609 31 c -0.132 -0.33 -0.296 -0.695 -0.492 -1.095 -0.188 -0.401 -0.387 -0.801 -0.596 -1.202 -0.202 0.381 -0.404 0.779 -0.607 1.192 -0.202 0.407 -0.377 0.775 -0.523 1.105 l -1.391 0 c 0.07 -0.174 0.171 -0.384 0.303 -0.63 0.139 -0.246 0.289 -0.511 0.45 -0.795 c 0.167 -0.284 0.342 -0.575 0.523 -0.872 c 0.181 -0.304 0.356 -0.595 0.523 -0.872 l -1.799 -2.83 1.5 0 1.021 1.919 0.979 -1.919 1.5 0 -1.757 2.801 c 0.188 0.278 0.373 0.569 0.554 0.872 0.181 0.304 0.349 0.601 0.502 0.892 0.16 0.284 0.3 0.553 0.418 0.805 c 0.119 0.246 0.213 0.456 0.282 0.63" style="fill:#fff;fill-opacity:1;stroke:none"/>
  <path d="m 21.655 25 c 0.366 0 0.797 0.038 1.094 0.115 0.297 0.077 0.552 0.195 0.766 0.355 0.214 0.16 0.376 0.364 0.486 0.613 0.117 0.243 0.176 0.53 0.176 0.863 0 0.345 -0.076 0.658 -0.228 0.939 -0.152 0.281 -0.504 0.495 -0.856 0.642 0.117 0.166 0.241 0.351 0.372 0.556 0.131 0.198 0.259 0.409 0.383 0.633 0.124 0.217 0.241 0.438 0.352 0.661 c 0.117 0.217 0.217 0.425 0.3 0.623 l -1.334 0 c -0.159 -0.383 -0.345 -0.751 -0.559 -1.102 -0.207 -0.358 -0.431 -0.719 -0.672 -1.083 l -0.662 0 0 2.185 l -1.272 0 0 -5.847 c 0.124 -0.026 0.259 -0.048 0.403 -0.067 0.152 -0.026 0.303 -0.042 0.455 -0.048 0.152 -0.013 0.297 -0.022 0.434 -0.029 0.138 -0.006 0.259 -0.01 0.362 -0.01 z m 1.228 1.936 c 0 -0.313 -0.103 -0.543 -0.31 -0.69 -0.207 -0.147 -0.58 -0.22 -0.918 -0.22 -0.048 0 -0.107 0.003 -0.176 0.01 -0.069 0 -0.138 0.006 -0.207 0.019 l 0 1.783 0.279 0 c 0.434 0 0.849 -0.077 1.042 -0.23 0.193 -0.16 0.29 -0.383 0.29 -0.671 z" style="fill:#fff;fill-opacity:1;stroke:none"/>
 </g>
</svg>
